view-parallel-outline.svg

<svg fill="currentColor" viewBox="0 0 24 24"><path d="M19 3H5v18h14zm-2 16h-2V5h2zm-4 0h-2V5h2zM7 5h2v14H7z"/></svg>

<svg  viewBox="0 0 24 24" fill="currentColor"><path  d="M19 3H5V21H19V3M17 19H15V5H17V19M13 19H11V5H13V19M7 5H9V19H7V5Z"/></svg>
